Numix/16/status/indicator-keyboard-No.svg

<?xml version="1.0" encoding="UTF-8" standalone="no"?>
<svg
   xmlns:dc="http://purl.org/dc/elements/1.1/"
   xmlns:cc="http://creativecommons.org/ns#"
   xmlns:rdf="http://www.w3.org/1999/02/22-rdf-syntax-ns#"
   xmlns:svg="http://www.w3.org/2000/svg"
   xmlns="http://www.w3.org/2000/svg"
   xmlns:sodipodi="http://sodipodi.sourceforge.net/DTD/sodipodi-0.dtd"
   xmlns:inkscape="http://www.inkscape.org/namespaces/inkscape"
   viewBox="0 0 16 16"
   id="svg2"
   version="1.1"
   inkscape:version="0.91 r13725"
   sodipodi:docname="indicator-keyboard-No.svg">
  <metadata
     id="metadata13">
    <rdf:RDF>
      <cc:Work
         rdf:about="">
        <dc:format>image/svg+xml</dc:format>
        <dc:type
           rdf:resource="http://purl.org/dc/dcmitype/StillImage" />
      </cc:Work>
    </rdf:RDF>
  </metadata>
  <defs
     id="defs11" />
  <sodipodi:namedview
     pagecolor="#ffffff"
     bordercolor="#666666"
     borderopacity="1"
     objecttolerance="10"
     gridtolerance="10"
     guidetolerance="10"
     inkscape:pageopacity="0"
     inkscape:pageshadow="2"
     inkscape:window-width="640"
     inkscape:window-height="480"
     id="namedview9"
     showgrid="false"
     inkscape:zoom="14.75"
     inkscape:cx="8"
     inkscape:cy="8"
     inkscape:window-x="65"
     inkscape:window-y="24"
     inkscape:window-maximized="0"
     inkscape:current-layer="svg2" />
  <path
     style="fill:#ececec;fill-opacity:1"
     d="M 1.5996094 0 C 0.71320937 2.9605947e-16 0 0.71320937 0 1.5996094 L 0 14.400391 C 2.9605947e-16 15.286791 0.71320937 16 1.5996094 16 L 14.400391 16 C 15.286791 16 16 15.286791 16 14.400391 L 16 1.5996094 C 16 0.71320937 15.286791 0 14.400391 0 L 1.5996094 0 z M 2.84375 4.828125 L 3.328125 4.828125 C 3.634125 5.170125 3.9625469 5.565625 4.3105469 6.015625 C 4.6645469 6.459625 5.0097031 6.9148125 5.3457031 7.3828125 C 5.6817031 7.8448125 5.99325 8.2981875 6.28125 8.7421875 C 6.57525 9.1861875 6.8159531 9.5742969 7.0019531 9.9042969 L 7.0019531 4.828125 L 7.6035156 4.828125 L 7.6035156 11.064453 L 7.0917969 11.064453 C 6.9777969 10.854453 6.8303906 10.608172 6.6503906 10.326172 C 6.4763906 10.044172 6.2842188 9.7437813 6.0742188 9.4257812 C 5.8642188 9.1017813 5.6422031 8.7715469 5.4082031 8.4355469 C 5.1742031 8.0935469 4.9410312 7.7652656 4.7070312 7.4472656 C 4.4790313 7.1232656 4.25325 6.8191094 4.03125 6.5371094 C 3.81525 6.2551094 3.6193125 6.0125937 3.4453125 5.8085938 L 3.4453125 11.064453 L 2.84375 11.064453 L 2.84375 4.828125 z M 11.033203 6.3027344 C 11.345203 6.3027344 11.630672 6.364375 11.888672 6.484375 C 12.146672 6.598375 12.368687 6.7625156 12.554688 6.9785156 C 12.746688 7.1885156 12.892141 7.4441406 12.994141 7.7441406 C 13.102141 8.0441406 13.15625 8.3761875 13.15625 8.7421875 C 13.15625 9.1081875 13.102141 9.4421875 12.994141 9.7421875 C 12.892141 10.042188 12.746687 10.295859 12.554688 10.505859 C 12.368687 10.715859 12.146672 10.881953 11.888672 11.001953 C 11.630672 11.115953 11.345203 11.171875 11.033203 11.171875 C 10.721203 11.171875 10.435734 11.115953 10.177734 11.001953 C 9.9197347 10.881953 9.6939531 10.715859 9.5019531 10.505859 C 9.3159531 10.295859 9.1705 10.042188 9.0625 9.7421875 C 8.9605 9.4421875 8.9082031 9.1081875 8.9082031 8.7421875 C 8.9082031 8.3761875 8.9605 8.0441406 9.0625 7.7441406 C 9.1705 7.4441406 9.3159531 7.1885156 9.5019531 6.9785156 C 9.6939531 6.7625156 9.9197347 6.598375 10.177734 6.484375 C 10.435734 6.364375 10.721203 6.3027344 11.033203 6.3027344 z M 11.033203 6.8339844 C 10.571203 6.8339844 10.205547 7.0094219 9.9355469 7.3574219 C 9.6655469 7.6994219 9.5292969 8.1601875 9.5292969 8.7421875 C 9.5292969 9.3241875 9.6655469 9.7869062 9.9355469 10.128906 C 10.205547 10.470906 10.571203 10.640625 11.033203 10.640625 C 11.495203 10.640625 11.860859 10.470906 12.130859 10.128906 C 12.400859 9.7869062 12.535156 9.3241875 12.535156 8.7421875 C 12.535156 8.1601875 12.400859 7.6994219 12.130859 7.3574219 C 11.860859 7.0094219 11.495203 6.8339844 11.033203 6.8339844 z "
     id="path4" />
</svg>

<svg xmlns="http://www.w3.org/2000/svg" viewBox="0 0 16 16">
 <path d="m 1.6 0 c -0.886 0 -1.6 0.713 -1.6 1.6 l 0 12.801 c 0 0.886 0.713 1.6 1.6 1.6 l 12.801 0 c 0.886 0 1.6 -0.713 1.6 -1.6 l 0 -12.801 c 0 -0.886 -0.713 -1.6 -1.6 -1.6 l -12.801 0 z m 1.244 4.828 l 0.484 0 c 0.306 0.342 0.634 0.737 0.982 1.188 c 0.354 0.444 0.699 0.899 1.035 1.367 c 0.336 0.462 0.648 0.915 0.936 1.359 c 0.294 0.444 0.535 0.832 0.721 1.162 l 0 -5.076 l 0.602 0 l 0 6.236 l -0.512 0 c -0.114 -0.21 -0.261 -0.456 -0.441 -0.738 c -0.174 -0.282 -0.366 -0.582 -0.576 -0.9 c -0.21 -0.324 -0.432 -0.654 -0.666 -0.99 c -0.234 -0.342 -0.467 -0.67 -0.701 -0.988 c -0.228 -0.324 -0.454 -0.628 -0.676 -0.91 c -0.216 -0.282 -0.412 -0.525 -0.586 -0.729 l 0 5.256 l -0.602 0 l 0 -6.236 z m 8.189 1.475 c 0.312 0 0.597 0.062 0.855 0.182 c 0.258 0.114 0.48 0.278 0.666 0.494 c 0.192 0.21 0.337 0.466 0.439 0.766 c 0.108 0.3 0.162 0.632 0.162 0.998 c 0 0.366 -0.054 0.7 -0.162 1 c -0.102 0.3 -0.247 0.554 -0.439 0.764 c -0.186 0.21 -0.408 0.376 -0.666 0.496 c -0.258 0.114 -0.543 0.17 -0.855 0.17 c -0.312 0 -0.597 -0.056 -0.855 -0.17 c -0.258 -0.12 -0.484 -0.286 -0.676 -0.496 c -0.186 -0.21 -0.331 -0.464 -0.439 -0.764 c -0.102 -0.3 -0.154 -0.634 -0.154 -1 c 0 -0.366 0.052 -0.698 0.154 -0.998 c 0.108 -0.3 0.253 -0.556 0.439 -0.766 c 0.192 -0.216 0.418 -0.38 0.676 -0.494 c 0.258 -0.12 0.543 -0.182 0.855 -0.182 z m 0 0.531 c -0.462 0 -0.828 0.175 -1.098 0.523 c -0.27 0.342 -0.406 0.803 -0.406 1.385 c 0 0.582 0.136 1.045 0.406 1.387 c 0.27 0.342 0.636 0.512 1.098 0.512 c 0.462 0 0.828 -0.17 1.098 -0.512 c 0.27 -0.342 0.404 -0.805 0.404 -1.387 c 0 -0.582 -0.134 -1.043 -0.404 -1.385 c -0.27 -0.348 -0.636 -0.523 -1.098 -0.523 z" style="fill:#ececec;fill-opacity:1"/>
</svg>
